static/img/kroki/92d992a41bb05bb067032c55b3f45b1f.svg

<?xml version="1.0" encoding="us-ascii" standalone="no"?><svg xmlns="http://www.w3.org/2000/svg" xmlns:xlink="http://www.w3.org/1999/xlink" contentStyleType="text/css" height="1033px" preserveAspectRatio="none" style="width:433px;height:1033px;" version="1.1" viewBox="0 0 433 1033" width="433px" zoomAndPan="magnify"><defs/><g><!--class azure_cosmos_db_restorable_gremlin_graph--><g id="elem_azure_cosmos_db_restorable_gremlin_graph"><rect codeLine="23" fill="#3D176E" height="74.0859" id="azure_cosmos_db_restorable_gremlin_graph" rx="2.5" ry="2.5" style="stroke:#000D19;stroke-width:0.5;" width="419" x="7" y="660.14"/><ellipse cx="25.6" cy="680.0345" fill="#ADD1B2" rx="11" ry="11" style="stroke:#181818;stroke-width:1.0;"/><path d="M28.5688,685.6752 Q27.9906,685.972 27.35,686.1127 Q26.7094,686.2689 26.0063,686.2689 Q23.5063,686.2689 22.1781,684.6283 Q20.8656,682.972 20.8656,679.847 Q20.8656,676.722 22.1781,675.0658 Q23.5063,673.4095 26.0063,673.4095 Q26.7094,673.4095 27.35,673.5658 Q28.0063,673.722 28.5688,674.0189 L28.5688,676.7377 Q27.9438,676.1595 27.35,675.8939 Q26.7563,675.6127 26.1313,675.6127 Q24.7875,675.6127 24.1,676.6908 Q23.4125,677.7533 23.4125,679.847 Q23.4125,681.9408 24.1,683.0189 Q24.7875,684.0814 26.1313,684.0814 Q26.7563,684.0814 27.35,683.8158 Q27.9438,683.5345 28.5688,682.9564 L28.5688,685.6752 Z " fill="#000000"/><text fill="#D9B8FF" font-family="Helvetica" font-size="17" lengthAdjust="spacing" textLength="369" x="45.4" y="685.9198">azure_cosmos_db_restorable_gremlin_graph</text><line style="stroke:#000D19;stroke-width:0.5;" x1="8" x2="425" y1="699.9291" y2="699.9291"/><text fill="#D9B8FF" font-family="sans-serif" font-size="14" font-weight="bold" lengthAdjust="spacing" textLength="201" x="18" y="721.9242">restorable_gremlin_graph</text><text fill="#D9B8FF" font-family="sans-serif" font-size="14" lengthAdjust="spacing" textLength="196" x="219" y="721.9242">: azure_restorable_database</text></g><!--class azure_restorable_database--><g id="elem_azure_restorable_database"><rect codeLine="26" fill="#3D176E" height="231.8672" id="azure_restorable_database" rx="2.5" ry="2.5" style="stroke:#000D19;stroke-width:0.5;" width="265" x="84" y="794.22"/><ellipse cx="99" cy="814.1145" fill="#ADD1B2" rx="11" ry="11" style="stroke:#181818;stroke-width:1.0;"/><path d="M101.9688,819.7552 Q101.3906,820.052 100.75,820.1927 Q100.1094,820.3489 99.4063,820.3489 Q96.9063,820.3489 95.5781,818.7083 Q94.2656,817.052 94.2656,813.927 Q94.2656,810.802 95.5781,809.1458 Q96.9063,807.4895 99.4063,807.4895 Q100.1094,807.4895 100.75,807.6458 Q101.4063,807.802 101.9688,808.0989 L101.9688,810.8177 Q101.3438,810.2395 100.75,809.9739 Q100.1563,809.6927 99.5313,809.6927 Q98.1875,809.6927 97.5,810.7708 Q96.8125,811.8333 96.8125,813.927 Q96.8125,816.0208 97.5,817.0989 Q98.1875,818.1614 99.5313,818.1614 Q100.1563,818.1614 100.75,817.8958 Q101.3438,817.6145 101.9688,817.0364 L101.9688,819.7552 Z " fill="#000000"/><text fill="#D9B8FF" font-family="Helvetica" font-size="17" lengthAdjust="spacing" textLength="223" x="118" y="819.9998">azure_restorable_database</text><line style="stroke:#000D19;stroke-width:0.5;" x1="85" x2="348" y1="834.0091" y2="834.0091"/><text fill="#D9B8FF" font-family="sans-serif" font-size="14" font-weight="bold" lengthAdjust="spacing" textLength="105" x="95" y="856.0042">can_undelete</text><text fill="#D9B8FF" font-family="sans-serif" font-size="14" lengthAdjust="spacing" textLength="48" x="200" y="856.0042">: string</text><text fill="#D9B8FF" font-family="sans-serif" font-size="14" font-weight="bold" lengthAdjust="spacing" textLength="167" x="95" y="882.3011">can_undelete_reason</text><text fill="#D9B8FF" font-family="sans-serif" font-size="14" lengthAdjust="spacing" textLength="48" x="262" y="882.3011">: string</text><text fill="#D9B8FF" font-family="sans-serif" font-size="14" font-weight="bold" lengthAdjust="spacing" textLength="134" x="95" y="908.5979">event_timestamp</text><text fill="#D9B8FF" font-family="sans-serif" font-size="14" lengthAdjust="spacing" textLength="48" x="229" y="908.5979">: string</text><text fill="#D9B8FF" font-family="sans-serif" font-size="14" font-weight="bold" lengthAdjust="spacing" textLength="118" x="95" y="934.8948">operation_type</text><text fill="#D9B8FF" font-family="sans-serif" font-size="14" lengthAdjust="spacing" textLength="48" x="213" y="934.8948">: string</text><text fill="#D9B8FF" font-family="sans-serif" font-size="14" font-weight="bold" lengthAdjust="spacing" textLength="72" x="95" y="961.1917">owner_id</text><text fill="#D9B8FF" font-family="sans-serif" font-size="14" lengthAdjust="spacing" textLength="48" x="167" y="961.1917">: string</text><text fill="#D9B8FF" font-family="sans-serif" font-size="14" font-weight="bold" lengthAdjust="spacing" textLength="151" x="95" y="987.4886">owner_resource_id</text><text fill="#D9B8FF" font-family="sans-serif" font-size="14" lengthAdjust="spacing" textLength="48" x="246" y="987.4886">: string</text><text fill="#D9B8FF" font-family="sans-serif" font-size="14" font-weight="bold" lengthAdjust="spacing" textLength="21" x="95" y="1013.7854">rid</text><text fill="#D9B8FF" font-family="sans-serif" font-size="14" lengthAdjust="spacing" textLength="48" x="116" y="1013.7854">: string</text></g><!--class microsoft_resource--><g id="elem_microsoft_resource"><rect codeLine="35" fill="#3D176E" height="100.3828" id="microsoft_resource" rx="2.5" ry="2.5" style="stroke:#000D19;stroke-width:0.5;" width="214" x="109.5" y="438.75"/><ellipse cx="130.8" cy="458.6445" fill="#ADD1B2" rx="11" ry="11" style="stroke:#181818;stroke-width:1.0;"/><path d="M133.7688,464.2852 Q133.1906,464.582 132.55,464.7227 Q131.9094,464.8789 131.2063,464.8789 Q128.7063,464.8789 127.3781,463.2383 Q126.0656,461.582 126.0656,458.457 Q126.0656,455.332 127.3781,453.6758 Q128.7063,452.0195 131.2063,452.0195 Q131.9094,452.0195 132.55,452.1758 Q133.2063,452.332 133.7688,452.6289 L133.7688,455.3477 Q133.1438,454.7695 132.55,454.5039 Q131.9563,454.2227 131.3313,454.2227 Q129.9875,454.2227 129.3,455.3008 Q128.6125,456.3633 128.6125,458.457 Q128.6125,460.5508 129.3,461.6289 Q129.9875,462.6914 131.3313,462.6914 Q131.9563,462.6914 132.55,462.4258 Q133.1438,462.1445 133.7688,461.5664 L133.7688,464.2852 Z " fill="#000000"/><text fill="#D9B8FF" font-family="Helvetica" font-size="17" lengthAdjust="spacing" textLength="158" x="151.2" y="464.5298">microsoft_resource</text><line style="stroke:#000D19;stroke-width:0.5;" x1="110.5" x2="322.5" y1="478.5391" y2="478.5391"/><text fill="#D9B8FF" font-family="sans-serif" font-size="14" font-weight="bold" lengthAdjust="spacing" textLength="35" x="120.5" y="500.5342">etag</text><text fill="#D9B8FF" font-family="sans-serif" font-size="14" lengthAdjust="spacing" textLength="48" x="155.5" y="500.5342">: string</text><text fill="#D9B8FF" font-family="sans-serif" font-size="14" font-weight="bold" lengthAdjust="spacing" textLength="144" x="120.5" y="526.8311">provisioning_state</text><text fill="#D9B8FF" font-family="sans-serif" font-size="14" lengthAdjust="spacing" textLength="48" x="264.5" y="526.8311">: string</text></g><!--class resource--><g id="elem_resource"><rect codeLine="39" fill="#3D176E" height="310.7578" id="resource" rx="2.5" ry="2.5" style="stroke:#000D19;stroke-width:0.5;" width="227" x="103" y="7"/><ellipse cx="171.75" cy="26.8945" fill="#ADD1B2" rx="11" ry="11" style="stroke:#181818;stroke-width:1.0;"/><path d="M174.7188,32.5352 Q174.1406,32.832 173.5,32.9727 Q172.8594,33.1289 172.1563,33.1289 Q169.6563,33.1289 168.3281,31.4883 Q167.0156,29.832 167.0156,26.707 Q167.0156,23.582 168.3281,21.9258 Q169.6563,20.2695 172.1563,20.2695 Q172.8594,20.2695 173.5,20.4258 Q174.1563,20.582 174.7188,20.8789 L174.7188,23.5977 Q174.0938,23.0195 173.5,22.7539 Q172.9063,22.4727 172.2813,22.4727 Q170.9375,22.4727 170.25,23.5508 Q169.5625,24.6133 169.5625,26.707 Q169.5625,28.8008 170.25,29.8789 Q170.9375,30.9414 172.2813,30.9414 Q172.9063,30.9414 173.5,30.6758 Q174.0938,30.3945 174.7188,29.8164 L174.7188,32.5352 Z " fill="#000000"/><text fill="#D9B8FF" font-family="Helvetica" font-size="17" lengthAdjust="spacing" textLength="71" x="197.25" y="32.7798">resource</text><line style="stroke:#000D19;stroke-width:0.5;" x1="104" x2="329" y1="46.7891" y2="46.7891"/><text fill="#D9B8FF" font-family="sans-serif" font-size="14" font-weight="bold" lengthAdjust="spacing" textLength="29" x="114" y="68.7842">age</text><text fill="#D9B8FF" font-family="sans-serif" font-size="14" lengthAdjust="spacing" textLength="66" x="143" y="68.7842">: duration</text><text fill="#D9B8FF" font-family="sans-serif" font-size="14" font-weight="bold" lengthAdjust="spacing" textLength="43" x="114" y="95.0811">atime</text><text fill="#D9B8FF" font-family="sans-serif" font-size="14" lengthAdjust="spacing" textLength="70" x="157" y="95.0811">: datetime</text><text fill="#D9B8FF" font-family="sans-serif" font-size="14" font-weight="bold" lengthAdjust="spacing" textLength="43" x="114" y="121.3779">ctime</text><text fill="#D9B8FF" font-family="sans-serif" font-size="14" lengthAdjust="spacing" textLength="70" x="157" y="121.3779">: datetime</text><text fill="#D9B8FF" font-family="sans-serif" font-size="14" font-weight="bold" lengthAdjust="spacing" textLength="14" x="114" y="147.6748">id</text><text fill="#D9B8FF" font-family="sans-serif" font-size="14" lengthAdjust="spacing" textLength="48" x="128" y="147.6748">: string</text><text fill="#D9B8FF" font-family="sans-serif" font-size="14" font-weight="bold" lengthAdjust="spacing" textLength="33" x="114" y="173.9717">kind</text><text fill="#D9B8FF" font-family="sans-serif" font-size="14" lengthAdjust="spacing" textLength="48" x="147" y="173.9717">: string</text><text fill="#D9B8FF" font-family="sans-serif" font-size="14" font-weight="bold" lengthAdjust="spacing" textLength="90" x="114" y="200.2686">last_access</text><text fill="#D9B8FF" font-family="sans-serif" font-size="14" lengthAdjust="spacing" textLength="66" x="204" y="200.2686">: duration</text><text fill="#D9B8FF" font-family="sans-serif" font-size="14" font-weight="bold" lengthAdjust="spacing" textLength="90" x="114" y="226.5654">last_update</text><text fill="#D9B8FF" font-family="sans-serif" font-size="14" lengthAdjust="spacing" textLength="66" x="204" y="226.5654">: duration</text><text fill="#D9B8FF" font-family="sans-serif" font-size="14" font-weight="bold" lengthAdjust="spacing" textLength="48" x="114" y="252.8623">mtime</text><text fill="#D9B8FF" font-family="sans-serif" font-size="14" lengthAdjust="spacing" textLength="70" x="162" y="252.8623">: datetime</text><text fill="#D9B8FF" font-family="sans-serif" font-size="14" font-weight="bold" lengthAdjust="spacing" textLength="43" x="114" y="279.1592">name</text><text fill="#D9B8FF" font-family="sans-serif" font-size="14" lengthAdjust="spacing" textLength="48" x="157" y="279.1592">: string</text><text fill="#D9B8FF" font-family="sans-serif" font-size="14" font-weight="bold" lengthAdjust="spacing" textLength="34" x="114" y="305.4561">tags</text><text fill="#D9B8FF" font-family="sans-serif" font-size="14" lengthAdjust="spacing" textLength="171" x="148" y="305.4561">: dictionary[string, string]</text></g><!--link azure_cosmos_db_restorable_gremlin_graph to azure_restorable_database--><g id="link_azure_cosmos_db_restorable_gremlin_graph_azure_restorable_database"><path codeLine="51" d="M216.5,734.45 C216.5,751.3 216.5,766.36 216.5,787.97 " fill="none" id="azure_cosmos_db_restorable_gremlin_graph-to-azure_restorable_database" style="stroke:#FFAF37;stroke-width:2.0;"/><polygon fill="#FFAF37" points="216.5,793.97,220.5,784.97,216.5,788.97,212.5,784.97,216.5,793.97" style="stroke:#FFAF37;stroke-width:2.0;"/></g><!--reverse link microsoft_resource to azure_cosmos_db_restorable_gremlin_graph--><g id="link_microsoft_resource_azure_cosmos_db_restorable_gremlin_graph"><path codeLine="52" d="M216.5,557.61 C216.5,594.67 216.5,626.48 216.5,659.87 " fill="none" id="microsoft_resource-backto-azure_cosmos_db_restorable_gremlin_graph" style="stroke:#FFAF37;stroke-width:2.0;"/><polygon fill="none" points="216.5,539.61,210.5,557.61,222.5,557.61,216.5,539.61" style="stroke:#FFAF37;stroke-width:2.0;"/></g><!--reverse link resource to microsoft_resource--><g id="link_resource_microsoft_resource"><path codeLine="53" d="M216.5,336.06 C216.5,379.65 216.5,405.98 216.5,438.42 " fill="none" id="resource-backto-microsoft_resource" style="stroke:#FFAF37;stroke-width:2.0;"/><polygon fill="none" points="216.5,318.06,210.5,336.06,222.5,336.06,216.5,318.06" style="stroke:#FFAF37;stroke-width:2.0;"/></g><!--SRC=[ZLJ1Yjim4BtxAmHx2pKaNTfiIYbi0wMzBANRMobcB8qT4Kio8paXs_RVApd9OibETa-svxrvyzumU2C5CbIjEp25gaIocTrAtGA1OlT4PhysZI5sKrLGtIvJy8lHxaN20oXaNx7PePCSKiRFZUHRZTQojmFeC_1jJQRJuYZl2BJr46etOAqRiFRUEP9bvt1WHgpAkwfAcQdepQrOBD_ZY6P889qey_bSB5OfvSLHLtC_Cnxb4xB5S6aFnk78vcX4pxhgCZ069aT1p_X5Zzz12AbhzcvG-t7qH1efgZzkG9XzO5VGsE4Owv3Gk4EBwr4gNDs9QZb9_dQ9dF6mEWPF7M71ZLN65g8i2Aqp16M3HKse6gdz4zeD-vFDPfV0sUp3IMZ04E2W19_XNpHgWj5hSz25DuaDEWnwrf-YhXF0TuCrEi9nvo-vS59vOL1jX9aM2PmqkWYxYA6zttqXnKJHMpGTSKnHYhxFiPJaPAoft7DVdmSTr55tIsOdhVVYFmjlDOfv5eiaeEufeZjc29KGiw_vzl0UzZDHIupxkuWBVfOhW7F_hqWcz4ZNYfEz0Q8cvcXGyLPzwAEYvA4DwF3hYBqvSNxxgA- -kJp_TEMk9XR_yM-Uvw- -wIpf6mjc_m40]--></g></svg>

<svg xmlns="http://www.w3.org/2000/svg" width="433" height="1033" viewBox="0 0 433 1033"><rect width="419" height="74.086" x="7" y="660.14" fill="#3D176E" rx="2.5" ry="2.5" style="stroke:#000d19;stroke-width:.5"/><circle cx="25.6" cy="680.034" r="11" fill="#ADD1B2" style="stroke:#181818;stroke-width:1"/><path d="M28.569 685.675q-.578.297-1.219.438-.64.156-1.344.156-2.5 0-3.828-1.64-1.312-1.657-1.312-4.782t1.312-4.781q1.328-1.657 3.828-1.657.703 0 1.344.157.656.156 1.219.453v2.719q-.625-.579-1.219-.844-.594-.281-1.219-.281-1.343 0-2.031 1.078-.687 1.062-.687 3.156t.687 3.172q.688 1.062 2.031 1.062.625 0 1.219-.265.594-.282 1.219-.86z"/><text x="45.4" y="685.92" fill="#D9B8FF" font-family="Helvetica" font-size="17" textLength="369">azure_cosmos_db_restorable_gremlin_graph</text><path d="M8 699.929h417" style="stroke:#000d19;stroke-width:.5"/><text x="18" y="721.924" fill="#D9B8FF" font-family="sans-serif" font-size="14" font-weight="bold" textLength="201">restorable_gremlin_graph</text><text x="219" y="721.924" fill="#D9B8FF" font-family="sans-serif" font-size="14" textLength="196">: azure_restorable_database</text><rect width="265" height="231.867" x="84" y="794.22" fill="#3D176E" rx="2.5" ry="2.5" style="stroke:#000d19;stroke-width:.5"/><circle cx="99" cy="814.115" r="11" fill="#ADD1B2" style="stroke:#181818;stroke-width:1"/><path d="M101.969 819.755q-.578.297-1.219.438-.64.156-1.344.156-2.5 0-3.828-1.64-1.312-1.657-1.312-4.782t1.312-4.781q1.328-1.656 3.828-1.656.703 0 1.344.156.656.156 1.219.453v2.719q-.625-.578-1.219-.844-.594-.281-1.219-.281-1.344 0-2.031 1.078-.687 1.062-.687 3.156t.687 3.172q.688 1.062 2.031 1.062.625 0 1.219-.265.594-.281 1.219-.86z"/><text x="118" y="820" fill="#D9B8FF" font-family="Helvetica" font-size="17" textLength="223">azure_restorable_database</text><path d="M85 834.009h263" style="stroke:#000d19;stroke-width:.5"/><text x="95" y="856.004" fill="#D9B8FF" font-family="sans-serif" font-size="14" font-weight="bold" textLength="105">can_undelete</text><text x="200" y="856.004" fill="#D9B8FF" font-family="sans-serif" font-size="14" textLength="48">: string</text><text x="95" y="882.301" fill="#D9B8FF" font-family="sans-serif" font-size="14" font-weight="bold" textLength="167">can_undelete_reason</text><text x="262" y="882.301" fill="#D9B8FF" font-family="sans-serif" font-size="14" textLength="48">: string</text><text x="95" y="908.598" fill="#D9B8FF" font-family="sans-serif" font-size="14" font-weight="bold" textLength="134">event_timestamp</text><text x="229" y="908.598" fill="#D9B8FF" font-family="sans-serif" font-size="14" textLength="48">: string</text><text x="95" y="934.895" fill="#D9B8FF" font-family="sans-serif" font-size="14" font-weight="bold" textLength="118">operation_type</text><text x="213" y="934.895" fill="#D9B8FF" font-family="sans-serif" font-size="14" textLength="48">: string</text><text x="95" y="961.192" fill="#D9B8FF" font-family="sans-serif" font-size="14" font-weight="bold" textLength="72">owner_id</text><text x="167" y="961.192" fill="#D9B8FF" font-family="sans-serif" font-size="14" textLength="48">: string</text><text x="95" y="987.489" fill="#D9B8FF" font-family="sans-serif" font-size="14" font-weight="bold" textLength="151">owner_resource_id</text><text x="246" y="987.489" fill="#D9B8FF" font-family="sans-serif" font-size="14" textLength="48">: string</text><text x="95" y="1013.785" fill="#D9B8FF" font-family="sans-serif" font-size="14" font-weight="bold" textLength="21">rid</text><text x="116" y="1013.785" fill="#D9B8FF" font-family="sans-serif" font-size="14" textLength="48">: string</text><rect width="214" height="100.383" x="109.5" y="438.75" fill="#3D176E" rx="2.5" ry="2.5" style="stroke:#000d19;stroke-width:.5"/><circle cx="130.8" cy="458.644" r="11" fill="#ADD1B2" style="stroke:#181818;stroke-width:1"/><path d="M133.769 464.285q-.578.297-1.219.438-.64.156-1.344.156-2.5 0-3.828-1.64-1.312-1.657-1.312-4.782t1.312-4.781q1.328-1.656 3.828-1.656.703 0 1.344.156.656.156 1.219.453v2.719q-.625-.579-1.219-.844-.594-.281-1.219-.281-1.343 0-2.031 1.078-.687 1.062-.687 3.156t.687 3.172q.688 1.062 2.031 1.062.625 0 1.219-.265.594-.281 1.219-.86z"/><text x="151.2" y="464.53" fill="#D9B8FF" font-family="Helvetica" font-size="17" textLength="158">microsoft_resource</text><path d="M110.5 478.539h212" style="stroke:#000d19;stroke-width:.5"/><text x="120.5" y="500.534" fill="#D9B8FF" font-family="sans-serif" font-size="14" font-weight="bold" textLength="35">etag</text><text x="155.5" y="500.534" fill="#D9B8FF" font-family="sans-serif" font-size="14" textLength="48">: string</text><text x="120.5" y="526.831" fill="#D9B8FF" font-family="sans-serif" font-size="14" font-weight="bold" textLength="144">provisioning_state</text><text x="264.5" y="526.831" fill="#D9B8FF" font-family="sans-serif" font-size="14" textLength="48">: string</text><rect width="227" height="310.758" x="103" y="7" fill="#3D176E" rx="2.5" ry="2.5" style="stroke:#000d19;stroke-width:.5"/><circle cx="171.75" cy="26.895" r="11" fill="#ADD1B2" style="stroke:#181818;stroke-width:1"/><path d="M174.719 32.535q-.578.297-1.219.438-.64.156-1.344.156-2.5 0-3.828-1.64-1.312-1.657-1.312-4.782t1.312-4.781q1.328-1.656 3.828-1.656.703 0 1.344.156.656.156 1.219.453v2.719q-.625-.578-1.219-.844-.594-.281-1.219-.281-1.344 0-2.031 1.078-.687 1.062-.687 3.156t.687 3.172q.688 1.062 2.031 1.062.625 0 1.219-.265.594-.281 1.219-.86z"/><text x="197.25" y="32.78" fill="#D9B8FF" font-family="Helvetica" font-size="17" textLength="71">resource</text><path d="M104 46.789h225" style="stroke:#000d19;stroke-width:.5"/><text x="114" y="68.784" fill="#D9B8FF" font-family="sans-serif" font-size="14" font-weight="bold" textLength="29">age</text><text x="143" y="68.784" fill="#D9B8FF" font-family="sans-serif" font-size="14" textLength="66">: duration</text><text x="114" y="95.081" fill="#D9B8FF" font-family="sans-serif" font-size="14" font-weight="bold" textLength="43">atime</text><text x="157" y="95.081" fill="#D9B8FF" font-family="sans-serif" font-size="14" textLength="70">: datetime</text><text x="114" y="121.378" fill="#D9B8FF" font-family="sans-serif" font-size="14" font-weight="bold" textLength="43">ctime</text><text x="157" y="121.378" fill="#D9B8FF" font-family="sans-serif" font-size="14" textLength="70">: datetime</text><text x="114" y="147.675" fill="#D9B8FF" font-family="sans-serif" font-size="14" font-weight="bold" textLength="14">id</text><text x="128" y="147.675" fill="#D9B8FF" font-family="sans-serif" font-size="14" textLength="48">: string</text><text x="114" y="173.972" fill="#D9B8FF" font-family="sans-serif" font-size="14" font-weight="bold" textLength="33">kind</text><text x="147" y="173.972" fill="#D9B8FF" font-family="sans-serif" font-size="14" textLength="48">: string</text><text x="114" y="200.269" fill="#D9B8FF" font-family="sans-serif" font-size="14" font-weight="bold" textLength="90">last_access</text><text x="204" y="200.269" fill="#D9B8FF" font-family="sans-serif" font-size="14" textLength="66">: duration</text><text x="114" y="226.565" fill="#D9B8FF" font-family="sans-serif" font-size="14" font-weight="bold" textLength="90">last_update</text><text x="204" y="226.565" fill="#D9B8FF" font-family="sans-serif" font-size="14" textLength="66">: duration</text><text x="114" y="252.862" fill="#D9B8FF" font-family="sans-serif" font-size="14" font-weight="bold" textLength="48">mtime</text><text x="162" y="252.862" fill="#D9B8FF" font-family="sans-serif" font-size="14" textLength="70">: datetime</text><text x="114" y="279.159" fill="#D9B8FF" font-family="sans-serif" font-size="14" font-weight="bold" textLength="43">name</text><text x="157" y="279.159" fill="#D9B8FF" font-family="sans-serif" font-size="14" textLength="48">: string</text><text x="114" y="305.456" fill="#D9B8FF" font-family="sans-serif" font-size="14" font-weight="bold" textLength="34">tags</text><text x="148" y="305.456" fill="#D9B8FF" font-family="sans-serif" font-size="14" textLength="171">: dictionary[string, string]</text><path fill="none" d="M216.5 734.45v53.52" style="stroke:#ffaf37;stroke-width:2"/><path fill="#FFAF37" d="m216.5 793.97 4-9-4 4-4-4z" style="stroke:#ffaf37;stroke-width:2"/><path fill="none" d="M216.5 557.61v102.26m0-120.26-6 18h12zm0-203.55v102.36m0-120.36-6 18h12z" style="stroke:#ffaf37;stroke-width:2"/></svg>
